X:1
T:Cross of Christ! Lead Onward
T:Russell Kelso Carter (1849-1928)
T:Cross of Christ! Lead Onward
T:Public Domain
T:Public Domain
T:Public Domain
C:Russell Kelso Carter (1849-1928)
Z:Public Domain
%%score ( 1 2 ) ( 3 4 )
L:1/8
M:4/4
K:Eb
V:1 treble 
V:2 treble 
V:3 bass 
V:4 bass 
V:1
 [EG]2 [EG]2 [EG]2 [EG]2 | [EG]4 [EF]4 | [DF]2 [DF]2 [DG]2 [DF]2 | E8 | [Ec]2 [Ec]2 [Ee]2 [Ec]2 | %5
w: 1.~Cross of Christ! lead|on- ward,|Through the ho- ly|war;|this sign we con-|
w: 2.~Not with pomp and|pa- geant,|Not in earth- ly|pride;|must fight our bat-|
w: 3.~Pan- o- plied in|grac- es,|Bold, yet hum- bly|meek;|ing while we’re work-|
w: 4.~By a cloud en-|com- passed,|Wit- ness- es a-|bove;|a- pos- tles, pro-|
w: 5.~March- ing in the|path- way|That the Mas- ter|trod,|One dai- ly with|
 [Ec]4 [EB]4 | [F=A]2 [FA]2 [EG]2 [EF]2 | [DB]8 | [Fd]2 [Fd]2 [Fc]2 [FB]2 | [Ge]4 [GB]4 | %10
w: quer, Now|and ev- er- more.|Not|of man the pow-|er, Not|
w: tles Like|the Cru- ci- fied.|O-|ver- come by suff-|'ring, Con-|
w: ing Strong,|but ev- er weak.|Tim-|id, though cou- ra-|geous, Gain-|
w: phets, Pre-|cious ones we love;|While|“ad- vance” is sound-|ing, Mounts|
w: us Like|the Son of God.|To|the end en- dur-|ing, Ar-|
 [Gd]2 [Gd]2 [^Fd]2 [=Ad]2 | [Gd]8 | [=Ae]2 [Ae]2 [Fd]2 [Fc]2 | (f2 d2) ([FB]2 [Gc]2) | %14
w: to man the fame;|We|are vic- tors on-|ly * In *|
w: quer through de- feat;|Tried|and test- ed dai-|ly * In *|
w: ing as we give;|Cru-|ci- fied with Je-|sus, * Yet, *|
w: the bat- tle thrill.|Cross|of Christ! lead on-|ward * Where *|
w: mor ne’er laid down|Till|the cross leads up-|ward * To *|
 [Fd]2 [Fd]2 (F2 z) B x | B6 A2 ||"^Refrain" [EG]2 [EG]2 [EG]2 [EG]2 | [FA]4 [FA]4 | %18
w: lead- er’s name. *||||
w: fur- nace heat. *||||
w: Him, we live. Cross||on- ward, Through the|ho- ly|
w: Cap- tain will. *||||
w: blood bought crown. *||||
 [EB]2 [EB]2 [EB]2 [E=B]2 | [Ec]8 | [Ee]2 [Ee]2 [Ed]2 [Ec]2 | (E2 D2) ([_DB]2 CF) | %22
w: ||||
w: ||||
w: war; In this sign|we|con- quer Now and|ev- * er- * *|
w: ||||
w: ||||
 [EG]2 [EG]2 [DF]3 E | E8 |] %24
w: ||
w: ||
w: ||
w: ||
w: ||
V:2
 x8 | x8 | x8 | E8 | x8 | x8 | x8 | x8 | x8 | x8 | x8 | x8 | x8 | F4 x4 | x4 c3 E2 | D8 || x8 | %17
w: |||In||||||||||our||||
w: |||We||||||||||the||||
w: |||Rest-||||||||||in|of Christ!|lead||
w: |||Saints,||||||||||the||||
w: |||Walks||||||||||the||||
 x8 | x8 | x8 | x8 | B4 A2 x2 | x7 E | E8 |] %24
w: |||||||
w: |||||||
w: ||||more. *|||
w: |||||||
w: |||||||
V:3
 [E,B,]2 [E,B,]2 [C,C]2 [C,C]2 | [F,=A,]4 [F,A,]4 | [B,,B,]2 [B,,B,]2 [B,,B,]2 [B,,A,]2 | [E,G,]8 | %4
 [A,,A,]2 A,2 [A,C]2 A,2 | A,4 [G,B,]4 | [F,C]2 [F,C]2 [F,B,]2 [F,=A,]2 | [B,,B,]8 | %8
 [B,,B,]2 [B,,B,]2 [B,,B,]2 [D,B,]2 | [E,B,]4 [E,E]4 | [G,B,]2 [G,B,]2 [D,=A,]2 [D,C]2 | [G,B,]8 | %12
 [F,C]2 [F,C]2 [F,B,]2 (=A,E) | [B,D]2 [B,,B,]2 [D,B,]2 [E,G,]2 | %14
 [F,B,]2 [F,B,]2 [F,=A,]2 [F,A,]2 x | [B,,B,]8 || [E,B,]2 [B,,B,]2 [E,B,]2 [B,,B,]2 | %17
 (F,2 B,,2) (F,2 B,,2) | [G,B,]2 [E,G,]2 [G,B,]2 [E,G,]2 | (A,2 E,2 C,2 A,,2) | %20
 [A,,C]2 [A,,C]2 [B,,B,]2 (C,D,) | ([E,G,]2 [F,B,]2) ([G,B,]2 C_C) | %22
 B,2 [B,,B,]2 [B,,A,]3 [B,,A,] | [E,G,]8 |] %24
V:4
 x8 | x8 | x8 | x8 | x2 A,2 A,2 x2 | A,4 x4 | x8 | x8 | x8 | x8 | x8 | x8 | x6 F,2 | x8 | x9 | %15
 x8 || x8 | B,4 B,4 | x8 | A,8 | x6 A,2 | x6 A,2 | B,2 x6 | x8 |] %24

